forklift.svg

<svg fill="currentColor" viewBox="0 0 24 24"><path d="M6 4v7H4c-1.11 0-2 .89-2 2v4a3 3 0 0 0 3 3 3 3 0 0 0 3-3h2a3 3 0 0 0 3 3 3 3 0 0 0 3-3v-4l-4-9zm11 1v14h5v-1.5h-3.5V5zm-9.5.5h3.7l3.3 7.5h-7zM5 15.5A1.5 1.5 0 0 1 6.5 17 1.5 1.5 0 0 1 5 18.5 1.5 1.5 0 0 1 3.5 17 1.5 1.5 0 0 1 5 15.5m8 0a1.5 1.5 0 0 1 1.5 1.5 1.5 1.5 0 0 1-1.5 1.5 1.5 1.5 0 0 1-1.5-1.5 1.5 1.5 0 0 1 1.5-1.5"/></svg>

<svg  viewBox="0 0 24 24" fill="currentColor"><path  d="M6,4V11H4C2.89,11 2,11.89 2,13V17A3,3 0 0,0 5,20A3,3 0 0,0 8,17H10A3,3 0 0,0 13,20A3,3 0 0,0 16,17V13L12,4H6M17,5V19H22V17.5H18.5V5H17M7.5,5.5H11.2L14.5,13H7.5V5.5M5,15.5A1.5,1.5 0 0,1 6.5,17A1.5,1.5 0 0,1 5,18.5A1.5,1.5 0 0,1 3.5,17A1.5,1.5 0 0,1 5,15.5M13,15.5A1.5,1.5 0 0,1 14.5,17A1.5,1.5 0 0,1 13,18.5A1.5,1.5 0 0,1 11.5,17A1.5,1.5 0 0,1 13,15.5Z"/></svg>
